pk/hair-dryer-one.svg

<svg viewBox="0 0 48 48" fill="none" xmlns="http://www.w3.org/2000/svg" height="1em" width="1em">
  <path d="M11 12.1383C11 12.0592 11.0587 11.9924 11.1371 11.9823L32.0822 9.27971C37.3414 8.60112 42 12.6973 42 18V18C42 23.3027 37.3413 27.3989 32.0822 26.7203L11.1371 24.0177C11.0587 24.0076 11 23.9408 11 23.8617V12.1383Z" stroke="black" stroke-width="4"/>
  <path d="M11 12L4 8V28L11 24" stroke="black" stroke-width="4" stroke-linecap="round" stroke-linejoin="round"/>
  <path d="M38 25L31.3061 40.8981C30.5146 42.7777 28.6738 44 26.6343 44V44C23.0091 44 20.5557 40.3051 21.9625 36.9639L27 25" stroke="black" stroke-width="4"/>
  <circle cx="35" cy="18" r="9" fill="#2F88FF" stroke="black" stroke-width="4"/>
</svg>

<svg viewBox="0 0 48 48" fill="none" xmlns="http://www.w3.org/2000/svg" height="1em" width="1em">
  <path d="M11 12.138c0-.079.059-.146.137-.156L32.082 9.28C37.342 8.6 42 12.697 42 18c0 5.303-4.659 9.399-9.918 8.72l-20.945-2.702a.157.157 0 0 1-.137-.156V12.138Z" stroke="#000" stroke-width="4"/>
  <path d="M11 12 4 8v20l7-4" stroke="#000" stroke-width="4" stroke-linecap="round" stroke-linejoin="round"/>
  <path d="m38 25-6.694 15.898A5.07 5.07 0 0 1 26.634 44c-3.625 0-6.078-3.695-4.672-7.036L27 25" stroke="#000" stroke-width="4"/>
  <circle cx="35" cy="18" r="9" fill="#2F88FF" stroke="#000" stroke-width="4"/>
</svg>
